X:1
T:Medway, LM
T:Medway, LM
T:Giovanni Battista Pergolesi (1710–1736) 
T:Public Domain Courtesy of the Cyber Hymnal™
C:Giovanni Battista Pergolesi (1710–1736)
Z:Public Domain
Z:Courtesy of the Cyber Hymnal™
%%score ( 1 2 ) ( 3 4 )
L:1/8
Q:1/4=104
M:2/4
K:A
V:1 treble 
V:2 treble 
V:3 bass 
V:4 bass 
V:1
 [CA]2 | [EB]2 [Ec]2 | [EB]2 (c>d) | [Ee]2 [Gd]2 | [Ac]3 [Ec] | [EB]2 [^DA]2 | [EG]2 (FG/A/) | %7
 [EG]2 [^DF]2 | E2 [CA]2 | [EB]2 [Ec]2 | [EB]2 (c>d) | [Ee]2 [Gd]2 | [Ac]3 [EB] | [Ec]2 [FA]2 | %14
 [Fd]3 [Fd] | [Ec]2 B2 | [CA]2 |] %17
V:2
 x2 | x4 | x2 E2 | x4 | x4 | x4 | x2 F2 | x4 | E2 x2 | x4 | x2 E2 | x4 | x4 | x4 | x4 | x2 (ED) | %16
 x2 |] %17
V:3
 [A,,A,]2 | [E,G,]2 A,2 | [E,G,]2 (A,>B,) | [A,C]2 [E,B,]2 | [A,,A,]3 A, | [G,B,]2 [F,B,]2 | %6
 [E,B,]2 [A,C]2 | B,2 (B,A,) | [E,G,]2 [A,,A,]2 | [E,G,]2 A,2 | [E,G,]2 (A,>B,) | [A,C]2 [E,B,]2 | %12
 [A,C]3 [E,G,] | A,2 [F,A,]2 | [D,A,]3 [B,,A,] | [E,A,]2 [E,G,]2 | [A,,A,]2 |] %17
V:4
 x2 | x2 A,2 | x2 A,2 | x4 | x3 A, | x4 | x4 | B,2 B,,2 | x4 | x2 A,2 | x2 A,2 | x4 | x4 | A,2 x2 | %14
 x4 | x4 | x2 |] %17

